X: 299
%
U:~=!turn!
T: Lady Georgina Russell's Reel
C:Marshall
O:Scotland
B:Keith Norman MacDonald : "The Skye collection of the best reels & strathspeys extant" : 1887
Z:Ralph Palmer
R:Reel
M:C|
L:1/8
K:Bb
B,2- B,(D FD)BF | GFGB c/c/c ~c2 | B,2- B,(D FD)BF | GFGA B/B/B ~B2 :| dfdB egec | dfdB c/c/c ~c2 |
dfdB egec | FBAc B/B/B ~B2 | dfdB egec | dfdB c/c/c ~c2 | B,DCE DFEG | FBAc B/B/B ~B2 |]


